X: 15338
T: Gladstone, The
R: reel
M: 4/4
K: Amajor
cAdB efga|A/A/A cA BGEd|cAdB efga|gfe^d e2 e=d|
cAdB efga|A/A/A cA BGEd|cAdB efga|ecdB A2 A||
afba geag|fdgf ecfe|dBed cAdc|BAGA Befg|
afba geag|fdgf ecfe|dBed ceaf|ecdB A2 A||
cAdB efga|A/A/A cA BGEd|cAdB efga|gfe^d e2 e=d|
cAdB efga|A/A/A cA BGEd|cAdB efga|ecdB A2 A||
a/a/a fa g/g/g eg|f/f/f df e/e/e ce|d/d/d Bd c/c/c Ac|BAGA Befg|
afba gbeg|fdaf eace|dBed ceAa|ecdB A2 A||

